X: 31503
T: Paddy's
R: polka
M: 2/4
K: Eminor
|:BE ED/E/|FD FA|BE ED/E/|FE D>A|
BE ED/E/|FD FA|B>c BA|FE E>A:|
|:Be ed/e/|fe ed|Be ed/e/|fe d>A|
Be ed/e/|fe ed|B>c BA|FE E>A:|

